X:541
T:Scotland The Brave #1 
C:Joe Buchanan's Scottish Tome - Page 066.1
I:066 1
R:Reel
Z:Carl Allison
L:1/8
M:4/4
K:Cmaj
"C"C4 C3D | "C"E2 C2 E2 G2 | "C"c4 "F"c3B | "C"c2 G2 "C7"E2 C2 |
"F"F4 A3F | "C"E2 G2 "Am"E2 C2 | "D7"D4 "G7"G3 A | "G7"G2 F2 E2 D2 |
"C"C4 C3 D | "C"E2 C2 E2 G2 | "C"c4 c3 B | "C"c2 G2 E2 C2 |
"F"F4 A3 F | "C"E2 G2 E2 C2 | "Fm"D4 C3 C | "C"C4 |
"G"d4 d3 d | "G7"d2 B2 G4 | "C"c4 e3 d | c2 "C"A2 G4 |
"Am"c4 c3 "D7"c | "G"B4 "Am"c3 B | "D7"A2 c2 B2 A2 | "G7"G2 F2 E2 D2 |
"C"C4 C3 D | "C"E2 C2 E2 G2 | "C"c4 c3 B | "C"c2 G2 "C7"E2 C2 |
"F"F4 A3 F | "C"E2 G2 "Am"E2 C2 | "Fm"D4 "C"C3 C | "C"C4 "C"C4 ||

